red.svg

<svg width="96" height="128" viewBox="0 0 6 8" xmlns="http://www.w3.org/2000/svg"><path d="m1 0 1 1-1 1-1-1m5-1 1 1-1 1-1-1m-1 1 1 1-1 1-1-1m-1 1 1 1-2 2 1 1 1-1-2-2m5-1 1 1-2 2 1 1 1-1-2-2"/></svg>

<svg viewBox="0 0 6 8" xmlns="http://www.w3.org/2000/svg"><path d="M1 0L2 1 1 2 0 1M5 0L6 1 5 2 4 1M3 2L4 3 3 4 2 3M1 4L2 5 0 7 1 8 2 7 0 5M5 4L6 5 4 7 5 8 6 7 4 5"/></svg>
